X: 22475
T: Lady Bighouses
R: reel
M: 4/4
K: Edorian
|:AAcA B2 g2|AAcA eAcA|dBcA B2 g2|ceac e2 e2:|
|:feac B2 g2|ceae feae|faec B2 f2|ceac e2 e2:|

